X: 1
T: MORGAN RATTLER -- JIG
R: jig
B: Ryan's Mammoth Collection of Fiddle Tunes
M: 6/8
L: 1/8
Z: Contributed 20000824194046 by John Chambers John.Chambers:weema.com
K: D
{uc}d "Segno"[|]\
|] A>GF EFG | FEF D2 {c}d | AGF EFG | B2A Bcd \
| AGF EFG | FEF D2{c}d | dcB ecA | B2A Bcd :|
|: vD2d {e}dcd | E2e {f}ede | D2d {e}dcd | B2A Bcd \
| D2d {e}dcd | E2d efg | agf edc | B2A Bcd "Segno"[|]:|
